img/svg/checkmark.svg

<?xml version="1.0" encoding="utf-8"?><!DOCTYPE svg PUBLIC "-//W3C//DTD SVG 1.1//EN" "http://www.w3.org/Graphics/SVG/1.1/DTD/svg11.dtd"><svg version="1.1" baseProfile="full" xmlns="http://www.w3.org/2000/svg" xmlns:xlink="http://www.w3.org/1999/xlink" xmlns:ev="http://www.w3.org/2001/xml-events"   height="10px"   width="15px" ><path fill="rgb( 255, 102, 0 )" d="M15,1.35799999999995 C15,1.35799999999995 6.77499999999998,10 6.77499999999998,10 C6.77499999999998,10 7.68899999999996,9.03999999999996 7.68899999999996,9.03999999999996 C7.68899999999996,9.03999999999996 7.04300000000001,8.36099999999999 7.04300000000001,8.36099999999999 C7.04300000000001,8.36099999999999 6.39700000000005,9.03999999999996 6.39700000000005,9.03999999999996 C6.39700000000005,9.03999999999996 0,2.31799999999998 0,2.31799999999998 C0,2.31799999999998 1.29200000000003,0.96000000000004 1.29200000000003,0.96000000000004 C1.29200000000003,0.96000000000004 7.04300000000001,7.00300000000004 7.04300000000001,7.00300000000004 C7.04300000000001,7.00300000000004 13.708,0 13.708,0 C13.708,0 15,1.35799999999995 15,1.35799999999995 Z "/></svg>

<svg baseProfile="full" xmlns="http://www.w3.org/2000/svg" height="10" width="15"><path fill="rgb( 255, 102, 0 )" d="M15 1.358l-8.225 8.642.914-.96-.646-.679-.646.679-6.397-6.722 1.292-1.358 5.751 6.043 6.665-7.003 1.292 1.358z"/></svg>
